assets/symbols/mulberry/spotty.svg

<svg height="851.394" viewBox="0 0 851.394 851.394" width="851.394" xmlns="http://www.w3.org/2000/svg"><g fill="#ed1e29"><path d="m641.29 649.13c21.66 0 39.22 17.561 39.22 39.22 0 21.66-17.56 39.221-39.22 39.221-21.65 0-39.21-17.561-39.21-39.221s17.56-39.22 39.21-39.22zm40.34-194.96c21.67 0 39.22 17.561 39.22 39.22 0 21.66-17.55 39.21-39.22 39.21-21.649 0-39.21-17.55-39.21-39.21s17.56-39.22 39.21-39.22zm-207.28 90.75c21.66 0 39.21 17.57 39.21 39.23 0 21.649-17.55 39.22-39.21 39.22-21.659 0-39.22-17.57-39.22-39.22 0-21.66 17.56-39.23 39.22-39.23zm-132.22 142.31c21.66 0 39.22 17.56 39.22 39.22s-17.56 39.22-39.22 39.22-39.21-17.56-39.21-39.22 17.55-39.22 39.21-39.22zm-224.09-61.63c21.66 0 39.21 17.551 39.21 39.21 0 21.66-17.55 39.221-39.21 39.221s-39.22-17.561-39.22-39.221 17.56-39.21 39.22-39.21zm152.38-110.93c21.66 0 39.22 17.561 39.22 39.22 0 21.65-17.56 39.21-39.22 39.21s-39.22-17.56-39.22-39.21c0-21.66 17.56-39.22 39.22-39.22zm107.57-169.19c21.65 0 39.21 17.56 39.21 39.21 0 21.67-17.56 39.22-39.21 39.22-21.66 0-39.22-17.55-39.22-39.22 0-21.65 17.56-39.21 39.22-39.21zm-245.38 38.09c21.66 0 39.21 17.56 39.21 39.22s-17.55 39.22-39.21 39.22-39.22-17.56-39.22-39.22 17.56-39.22 39.22-39.22z"/><circle cx="234.57" cy="263.69" r="39.22"/><path d="m132.61 86.66c21.66 0 39.21 17.55 39.21 39.21s-17.55 39.22-39.21 39.22-39.22-17.56-39.22-39.22 17.56-39.21 39.22-39.21zm254.34 29.13c21.66 0 39.22 17.55 39.22 39.21s-17.56 39.22-39.22 39.22-39.22-17.56-39.22-39.22 17.56-39.21 39.22-39.21zm177.03 182.64c21.67 0 39.22 17.56 39.22 39.22s-17.55 39.21-39.22 39.21c-21.65 0-39.211-17.55-39.211-39.21.001-21.66 17.561-39.22 39.211-39.22zm170.32-62.75c21.66 0 39.22 17.55 39.22 39.21s-17.56 39.22-39.22 39.22c-21.649 0-39.22-17.56-39.22-39.22s17.57-39.21 39.22-39.21zm-138.94-149.01c21.67 0 39.22 17.55 39.22 39.21s-17.55 39.21-39.22 39.21c-21.65 0-39.21-17.55-39.21-39.21s17.56-39.21 39.21-39.21z"/></g><g fill="none"><g stroke="#231f20" stroke-linecap="round" stroke-linejoin="round" stroke-width="21"><circle cx="234.57" cy="263.69" r="39.22"/><path d="m513.56 584.15c0 21.649-17.55 39.22-39.21 39.22-21.659 0-39.22-17.57-39.22-39.22 0-21.66 17.561-39.23 39.22-39.23 21.66 0 39.21 17.57 39.21 39.23zm-132.21 142.3c0 21.66-17.56 39.22-39.22 39.22s-39.21-17.56-39.21-39.22 17.55-39.22 39.21-39.22 39.22 17.56 39.22 39.22zm299.16-38.1c0 21.66-17.56 39.221-39.22 39.221-21.65 0-39.21-17.561-39.21-39.221 0-21.659 17.56-39.22 39.21-39.22 21.66 0 39.22 17.56 39.22 39.22zm-263.31-303.66c0 21.67-17.56 39.22-39.21 39.22-21.66 0-39.22-17.55-39.22-39.22 0-21.65 17.56-39.21 39.22-39.21 21.65 0 39.21 17.56 39.21 39.21zm8.97-229.69c0 21.66-17.56 39.22-39.22 39.22s-39.22-17.56-39.22-39.22 17.56-39.21 39.22-39.21 39.22 17.55 39.22 39.21zm-254.35-29.13c0 21.66-17.55 39.22-39.21 39.22s-39.22-17.56-39.22-39.22 17.56-39.21 39.22-39.21 39.21 17.55 39.21 39.21zm0 296.92c0 21.66-17.55 39.22-39.21 39.22s-39.22-17.56-39.22-39.22 17.56-39.22 39.22-39.22 39.21 17.56 39.21 39.22zm137.82 131.1c0 21.65-17.56 39.21-39.22 39.21s-39.22-17.56-39.22-39.21c0-21.659 17.56-39.22 39.22-39.22s39.22 17.56 39.22 39.22zm-152.39 110.92c0 21.66-17.55 39.221-39.21 39.221s-39.22-17.561-39.22-39.221c0-21.659 17.56-39.21 39.22-39.21s39.21 17.55 39.21 39.21zm563.6-171.42c0 21.66-17.55 39.21-39.22 39.21-21.649 0-39.21-17.55-39.21-39.21 0-21.659 17.561-39.22 39.21-39.22 21.67 0 39.22 17.56 39.22 39.22zm-117.65-155.74c0 21.66-17.55 39.21-39.22 39.21-21.65 0-39.211-17.55-39.211-39.21s17.561-39.22 39.211-39.22c21.67 0 39.22 17.56 39.22 39.22zm31.38-211.77c0 21.66-17.55 39.21-39.22 39.21-21.65 0-39.21-17.55-39.21-39.21s17.56-39.21 39.21-39.21c21.67 0 39.22 17.55 39.22 39.21zm138.94 149.01c0 21.66-17.56 39.22-39.22 39.22-21.649 0-39.22-17.56-39.22-39.22s17.57-39.21 39.22-39.21c21.66 0 39.22 17.55 39.22 39.21z"/></g><path d="m.5.5h850.394v850.394h-850.394z" stroke="#fff"/></g></svg>

<svg xmlns="http://www.w3.org/2000/svg" width="851.394" height="851.394" viewBox="0 0 851.394 851.394" overflow="visible"><g fill="#ed1e29"><path d="M641.29 649.13c21.66 0 39.22 17.561 39.22 39.22 0 21.66-17.56 39.221-39.22 39.221-21.65 0-39.21-17.561-39.21-39.221 0-21.66 17.56-39.22 39.21-39.22zM681.63 454.17c21.67 0 39.22 17.561 39.22 39.22 0 21.66-17.55 39.21-39.22 39.21-21.649 0-39.21-17.55-39.21-39.21s17.56-39.22 39.21-39.22zM474.35 544.92c21.66 0 39.21 17.57 39.21 39.23 0 21.649-17.55 39.22-39.21 39.22-21.659 0-39.22-17.57-39.22-39.22 0-21.66 17.56-39.23 39.22-39.23zM342.13 687.23c21.66 0 39.22 17.56 39.22 39.22s-17.56 39.22-39.22 39.22-39.21-17.56-39.21-39.22 17.55-39.22 39.21-39.22zM118.04 625.6c21.66 0 39.21 17.551 39.21 39.21 0 21.66-17.55 39.221-39.21 39.221S78.82 686.47 78.82 664.81c0-21.66 17.56-39.21 39.22-39.21zM270.42 514.67c21.66 0 39.22 17.561 39.22 39.22 0 21.65-17.56 39.21-39.22 39.21s-39.22-17.56-39.22-39.21c0-21.66 17.56-39.22 39.22-39.22zM377.99 345.48c21.65 0 39.21 17.56 39.21 39.21 0 21.67-17.56 39.22-39.21 39.22-21.66 0-39.22-17.55-39.22-39.22 0-21.65 17.56-39.21 39.22-39.21zM132.61 383.57c21.66 0 39.21 17.56 39.21 39.22s-17.55 39.22-39.21 39.22-39.22-17.56-39.22-39.22 17.56-39.22 39.22-39.22z"/><circle cx="234.57" cy="263.69" r="39.22"/><path d="M132.61 86.66c21.66 0 39.21 17.55 39.21 39.21s-17.55 39.22-39.21 39.22-39.22-17.56-39.22-39.22 17.56-39.21 39.22-39.21zM386.95 115.79c21.66 0 39.22 17.55 39.22 39.21s-17.56 39.22-39.22 39.22-39.22-17.56-39.22-39.22 17.56-39.21 39.22-39.21zM563.98 298.43c21.67 0 39.22 17.56 39.22 39.22s-17.55 39.21-39.22 39.21c-21.65 0-39.211-17.55-39.211-39.21.001-21.66 17.561-39.22 39.211-39.22zM734.3 235.68c21.66 0 39.22 17.55 39.22 39.21s-17.56 39.22-39.22 39.22c-21.649 0-39.22-17.56-39.22-39.22s17.57-39.21 39.22-39.21zM595.36 86.67c21.67 0 39.22 17.55 39.22 39.21s-17.55 39.21-39.22 39.21c-21.65 0-39.21-17.55-39.21-39.21s17.56-39.21 39.21-39.21z"/></g><g fill="none" stroke="#231f20" stroke-width="21" stroke-linecap="round" stroke-linejoin="round"><circle cx="234.57" cy="263.69" r="39.22"/><path d="M513.56 584.15c0 21.649-17.55 39.22-39.21 39.22-21.659 0-39.22-17.57-39.22-39.22 0-21.66 17.561-39.23 39.22-39.23 21.66 0 39.21 17.57 39.21 39.23zM381.35 726.45c0 21.66-17.56 39.22-39.22 39.22s-39.21-17.56-39.21-39.22 17.55-39.22 39.21-39.22 39.22 17.56 39.22 39.22zM680.51 688.35c0 21.66-17.56 39.221-39.22 39.221-21.65 0-39.21-17.561-39.21-39.221 0-21.659 17.56-39.22 39.21-39.22 21.66 0 39.22 17.56 39.22 39.22zM417.2 384.69c0 21.67-17.56 39.22-39.21 39.22-21.66 0-39.22-17.55-39.22-39.22 0-21.65 17.56-39.21 39.22-39.21 21.65 0 39.21 17.56 39.21 39.21zM426.17 155c0 21.66-17.56 39.22-39.22 39.22s-39.22-17.56-39.22-39.22 17.56-39.21 39.22-39.21 39.22 17.55 39.22 39.21zM171.82 125.87c0 21.66-17.55 39.22-39.21 39.22s-39.22-17.56-39.22-39.22 17.56-39.21 39.22-39.21 39.21 17.55 39.21 39.21zM171.82 422.79c0 21.66-17.55 39.22-39.21 39.22s-39.22-17.56-39.22-39.22 17.56-39.22 39.22-39.22 39.21 17.56 39.21 39.22zM309.64 553.89c0 21.65-17.56 39.21-39.22 39.21s-39.22-17.56-39.22-39.21c0-21.659 17.56-39.22 39.22-39.22s39.22 17.56 39.22 39.22zM157.25 664.81c0 21.66-17.55 39.221-39.21 39.221S78.82 686.47 78.82 664.81c0-21.659 17.56-39.21 39.22-39.21s39.21 17.55 39.21 39.21zM720.85 493.39c0 21.66-17.55 39.21-39.22 39.21-21.649 0-39.21-17.55-39.21-39.21 0-21.659 17.561-39.22 39.21-39.22 21.67 0 39.22 17.56 39.22 39.22zM603.2 337.65c0 21.66-17.55 39.21-39.22 39.21-21.65 0-39.211-17.55-39.211-39.21s17.561-39.22 39.211-39.22c21.67 0 39.22 17.56 39.22 39.22zM634.58 125.88c0 21.66-17.55 39.21-39.22 39.21-21.65 0-39.21-17.55-39.21-39.21s17.56-39.21 39.21-39.21c21.67 0 39.22 17.55 39.22 39.21zM773.52 274.89c0 21.66-17.56 39.22-39.22 39.22-21.649 0-39.22-17.56-39.22-39.22s17.57-39.21 39.22-39.21c21.66 0 39.22 17.55 39.22 39.21z"/></g><path fill="none" stroke="#fff" d="M.5.5h850.394v850.394H.5z"/></svg>
